svg/fluentui-system-icons/ic_fluent_text_quote_24_filled.svg

<svg width="24" height="24" viewBox="0 0 24 24" fill="none" xmlns="http://www.w3.org/2000/svg">
<path d="M7.5 6C8.82549 6 9.91004 7.03154 9.99468 8.33562L9.99965 8.54235C9.99006 12.0967 8.75946 15.1555 6.29529 17.7649C6.0109 18.0661 5.53622 18.0797 5.23507 17.7953C4.93391 17.5109 4.92032 17.0362 5.20471 16.7351C6.84531 14.9977 7.86496 13.0611 8.28231 10.876C8.03549 10.9563 7.77285 11 7.5 11C6.11929 11 5 9.88071 5 8.5C5 7.11929 6.11929 6 7.5 6ZM16.5 6C17.8255 6 18.91 7.03154 18.9947 8.33562L18.9997 8.54235C18.9901 12.1029 17.7625 15.156 15.2949 17.7653C15.0103 18.0663 14.5356 18.0795 14.2347 17.7949C13.9337 17.5103 13.9205 17.0356 14.2051 16.7347C15.8483 14.9971 16.8669 13.0631 17.2832 10.8762C17.0355 10.9563 16.7729 11 16.5 11C15.1193 11 14 9.88071 14 8.5C14 7.11929 15.1193 6 16.5 6Z" fill="#212121"/>
</svg>

<svg xmlns="http://www.w3.org/2000/svg" width="24" height="24"><path d="M7.5 6a2.5 2.5 0 0 1 2.495 2.336l.005.206c-.01 3.555-1.24 6.614-3.705 9.223a.75.75 0 1 1-1.09-1.03c1.64-1.737 2.66-3.674 3.077-5.859A2.5 2.5 0 1 1 7.5 6Zm9 0a2.5 2.5 0 0 1 2.495 2.336l.005.206c-.01 3.56-1.238 6.614-3.705 9.223a.75.75 0 1 1-1.09-1.03c1.643-1.738 2.662-3.672 3.078-5.859A2.5 2.5 0 1 1 16.5 6Z"/></svg>
